X:29
T: Schweizerimann, S. 45
N: R0053
O: Luxemburg
S: D'Fraen um Kanddaaf an der aler Zeit, Luxemburg 1929]
R: ??]
M: 2/4
L: 1/16
K: G
 | G4B2A2 | G4z4 | G4B2A2 | G4z4 |
D3GG2G2 | G2G2F2G2 | A4z4 |
D3AA2A2 | G2A2B4 |
G4B2A2 | G4z4 | G4B2A2 | G4z4

@@@ Tune index: 8083
